images/buildings/waterfront-left.svg

<?xml version="1.0" standalone="no"?><!DOCTYPE svg PUBLIC "-//W3C//DTD SVG 1.1//EN" "http://www.w3.org/Graphics/SVG/1.1/DTD/svg11.dtd"><svg width="480px" height="240px" version="1.1" xmlns="http://www.w3.org/2000/svg" xmlns:xlink="http://www.w3.org/1999/xlink" xml:space="preserve" style="fill-rule:evenodd;clip-rule:evenodd;stroke-linejoin:round;stroke-miterlimit:1.41421;"><g><g id="waterfront-left" transform="matrix(0.5,0,0,0.5,-240,0)"><g id="water"><path d="M958,276.386l0,203.614l482,0l0,-203.919l-81.675,11.437l-4.38,-7.393l-98.985,11.016l-9.292,-14.19l-121.354,13.05l-5.677,-9.373l-118.906,10.372l-7.677,-19.372l-34.054,4.758Z" style="fill:#366387;fill-rule:nonzero;"/><path d="M958,355.744l69,6.087l-69,-12.147l0,6.06Z" style="fill:#4f83a3;fill-rule:nonzero;"/></g><g id="rocks"><path d="M1214.87,288l-33.873,0l-49.096,30.749l-33.305,40.565l-39.599,35.75l-39,15.935l-39.113,69.001l391.217,0l19.896,-191.049l-104.484,-1.324l-72.643,0.373Z" style="fill:#645849;fill-rule:nonzero;"/><path d="M1281.17,281.918l-17.706,29.679l27.825,25.295l53.961,6.007l46.75,-20.941l0,-37.903l-0.377,-2.137l-51.433,-26.918l-59.02,26.918Z" style="fill:#645849;fill-rule:nonzero;"/><path d="M1304.46,288.282l-41.619,-21.781l-47.76,21.781l-14.328,24.017l22.516,20.468l43.666,4.861l42.845,-19.192l-5.32,-30.154Z" style="fill:#7c705a;fill-rule:nonzero;"/><path d="M1266.41,295.695l-60.568,-25.636l-69.502,25.636l-20.851,28.267l32.766,24.091l63.545,5.722l62.352,-22.589l-7.742,-35.491Z" style="fill:#645849;fill-rule:nonzero;"/><path d="M1371.39,329.839l-51.433,-26.918l-59.021,26.918l-17.705,29.679l27.824,25.295l53.961,6.006l52.949,-23.716l-6.575,-37.264Z" style="fill:#645849;fill-rule:nonzero;"/><path d="M1319.53,366.537l-51.433,-26.917l-59.02,26.917l-17.707,29.68l27.824,25.295l53.963,6.007l52.948,-23.717l-6.575,-37.265Z" style="fill:#645849;fill-rule:nonzero;"/><path d="M1233.72,332.23l-39.836,-20.849l-45.711,20.849l-13.713,22.986l21.549,19.591l41.795,4.653l41.008,-18.37l-5.092,-28.86Z" style="fill:#7c705a;fill-rule:nonzero;"/><path d="M1151.78,322.505l-57.573,-7.436l-46.043,33.046l-6.33,33.976l34.863,14.091l52.703,-13.055l41.455,-27.942l-19.075,-32.68Z" style="fill:#988a74;fill-rule:nonzero;"/><path d="M1317,365.272l-51.433,-26.918l-59.02,26.918l-17.707,29.68l27.824,25.295l53.963,6.006l52.947,-23.717l-6.574,-37.264Z" style="fill:#988a74;fill-rule:nonzero;"/><path d="M1365.5,322.173l-23.777,-12.444l-27.286,12.444l-8.185,13.722l12.863,11.694l24.946,2.776l24.478,-10.963l-3.039,-17.229Z" style="fill:#988a74;fill-rule:nonzero;"/><path d="M1212.16,417.415l-22.054,36.969l28.176,25.616l103.555,0l36.096,-16.168l-8.189,-46.417l-64.067,-33.53l-73.517,33.53Z" style="fill:#7c705a;fill-rule:nonzero;"/><path d="M1301.97,363.769l-14.329,24.016l22.515,20.469l43.667,4.861l38.179,-17.102l0,-28.535l-0.654,-3.709l-41.62,-21.781l-47.758,21.781Z" style="fill:#7c705a;fill-rule:nonzero;"/><path d="M1079.29,411.585l-31.178,-16.316l-35.778,16.316l-10.733,17.993l16.867,15.333l32.711,3.641l32.096,-14.377l-3.985,-22.59Z" style="fill:#988a74;fill-rule:nonzero;"/><path d="M1056.18,426.802l-20.365,34.137l20.967,19.061l110.929,0l23.074,-10.335l-7.561,-42.863l-59.159,-25.9l-67.885,25.9Z" style="fill:#7c705a;fill-rule:nonzero;"/><path d="M1191.09,444.482l-13.542,23.674l13.517,11.844l76.297,0l16.607,-7.808l-5.727,-29.306l-40.97,-20.497l-46.182,22.093Z" style="fill:#645849;fill-rule:nonzero;"/><path d="M1324.54,408.975l-9.693,24.294l16.303,20.255l30.977,4.314l29.871,-19.767l0,-0.627l-4.235,-29.627l-29.84,-21.327l-33.383,22.485Z" style="fill:#645849;fill-rule:nonzero;"/><path d="M1332.63,398.182l-22.989,-4.482l-19.72,17.209l-3.427,13.517l13.674,6.575l21.557,-3.897l17.742,-15.271l-6.837,-13.651Z" style="fill:#988a74;fill-rule:nonzero;"/></g><g id="wall"><path d="M1422,113l2.333,19l-53.333,0l2,-19l49,0Z" style="fill:#ecdbb1;fill-rule:nonzero;"/><path d="M1363.83,125l-20.04,355l96.206,0l0,-204.001l-9.166,-150.999l-67,0Z" style="fill:#cead80;fill-rule:nonzero;"/><path d="M1430,115l-65,0l0.666,-8l63.334,0l1,8Z" style="fill:#cead80;fill-rule:nonzero;"/></g></g><g id="waterfront-left-repeat" transform="matrix(0.5,0,0,0.5,-240,0)"><g id="water-repeat"><g transform="matrix(-1,0,0,1,1440,0)"><path d="M918.269,291l-118.906,-10.372l-5.677,9.372l-121.354,-13.049l-9.291,14.189l-98.985,-11.016l-4.381,7.394l-80.675,-11.297l0,203.779l482,0l0,-203.475l-35.054,-4.897l-7.677,19.372Z" style="fill:#366387;fill-rule:nonzero;"/></g><path d="M894.48,361.832l49.082,-7.361l17.438,1.538l0,-5.797l-21.119,-3.718l-45.401,15.338Z" style="fill:#4f83a3;fill-rule:nonzero;"/><path d="M932.703,422.778l-64.264,-15.338l-33.49,15.338l36.205,-7.362l61.549,7.362Z" style="fill:#4f83a3;fill-rule:nonzero;"/><path d="M888.622,334.838l-87.118,-15.338l-45.401,15.338l49.081,-7.362l83.438,7.362Z" style="fill:#4f83a3;fill-rule:nonzero;"/><path d="M781.324,406.784l-64.264,-15.338l-33.489,15.338l36.205,-7.362l61.548,7.362Z" style="fill:#4f83a3;fill-rule:nonzero;"/><path d="M714.385,349.562l-87.119,-15.338l-45.401,15.338l49.082,-7.362l83.438,7.362Z" style="fill:#4f83a3;fill-rule:nonzero;"/><path d="M607.087,416.508l-64.264,-15.338l-33.489,15.338l36.205,-7.362l61.548,7.362Z" style="fill:#4f83a3;fill-rule:nonzero;"/><path d="M479,355.833l68,5.999l-68,-11.972l0,5.973Z" style="fill:#4f83a3;fill-rule:nonzero;"/></g></g></g></svg>

<?xml version="1.0" encoding="UTF-8" standalone="no"?>
<!DOCTYPE svg PUBLIC "-//W3C//DTD SVG 1.1//EN" "http://www.w3.org/Graphics/SVG/1.1/DTD/svg11.dtd">
<svg width="100%" height="100%" viewBox="0 0 610 300" version="1.1" xmlns="http://www.w3.org/2000/svg" xmlns:xlink="http://www.w3.org/1999/xlink" xml:space="preserve" xmlns:serif="http://www.serif.com/" style="fill-rule:evenodd;clip-rule:evenodd;stroke-linejoin:round;stroke-miterlimit:2;">
    <g id="waterfront-left" transform="matrix(0.635,0,0,0.635,-304.4,-4.8)">
        <g id="water-repeat">
            <g transform="matrix(-1,0,0,1,1440,0)">
                <path d="M918.269,291L799.363,280.628L793.686,290L672.332,276.951L663.041,291.14L564.056,280.124L559.675,287.518L479,276.221L479,480L961,480L961,276.525L925.946,271.628L918.269,291Z" style="fill:rgb(54,99,135);fill-rule:nonzero;"/>
            </g>
            <path d="M894.48,361.832L943.562,354.471L961,356.009L961,350.212L939.881,346.494L894.48,361.832Z" style="fill:rgb(79,131,163);fill-rule:nonzero;"/>
            <path d="M932.703,422.778L868.439,407.44L834.949,422.778L871.154,415.416L932.703,422.778Z" style="fill:rgb(79,131,163);fill-rule:nonzero;"/>
            <path d="M888.622,334.838L801.504,319.5L756.103,334.838L805.184,327.476L888.622,334.838Z" style="fill:rgb(79,131,163);fill-rule:nonzero;"/>
            <path d="M781.324,406.784L717.06,391.446L683.571,406.784L719.776,399.422L781.324,406.784Z" style="fill:rgb(79,131,163);fill-rule:nonzero;"/>
            <path d="M714.385,349.563L627.266,334.224L581.865,349.563L630.947,342.2L714.385,349.563Z" style="fill:rgb(79,131,163);fill-rule:nonzero;"/>
            <path d="M607.087,416.508L542.823,401.17L509.334,416.508L545.539,409.146L607.087,416.508Z" style="fill:rgb(79,131,163);fill-rule:nonzero;"/>
            <path d="M479,355.833L547,361.832L479,349.86L479,355.833Z" style="fill:rgb(79,131,163);fill-rule:nonzero;"/>
        </g>
        <g id="water">
            <path d="M958,276.386L958,480L1440,480L1440,276.081L1358.33,287.518L1353.94,280.125L1254.96,291.141L1245.67,276.951L1124.31,290.001L1118.64,280.628L999.731,291L992.054,271.628L958,276.386Z" style="fill:rgb(54,99,135);fill-rule:nonzero;"/>
            <path d="M958,355.744L1027,361.831L958,349.684L958,355.744Z" style="fill:rgb(79,131,163);fill-rule:nonzero;"/>
        </g>
        <g id="rocks">
            <path d="M1214.87,288L1181,288L1131.9,318.749L1098.6,359.314L1059,395.064L1020,410.999L980.887,480L1372.1,480L1392,288.951L1287.52,287.627L1214.87,288Z" style="fill:rgb(100,88,73);fill-rule:nonzero;"/>
            <path d="M1281.17,281.918L1263.46,311.597L1291.29,336.892L1345.25,342.899L1392,321.958L1392,284.055L1391.62,281.918L1340.19,255L1281.17,281.918Z" style="fill:rgb(100,88,73);fill-rule:nonzero;"/>
            <path d="M1304.46,288.282L1262.85,266.501L1215.09,288.282L1200.76,312.299L1223.27,332.767L1266.94,337.628L1309.79,318.436L1304.46,288.282Z" style="fill:rgb(124,112,90);fill-rule:nonzero;"/>
            <path d="M1266.41,295.695L1205.84,270.059L1136.34,295.695L1115.49,323.962L1148.26,348.053L1211.8,353.775L1274.15,331.186L1266.41,295.695Z" style="fill:rgb(100,88,73);fill-rule:nonzero;"/>
            <path d="M1371.39,329.839L1319.95,302.921L1260.93,329.839L1243.23,359.518L1271.05,384.813L1325.01,390.819L1377.96,367.103L1371.39,329.839Z" style="fill:rgb(100,88,73);fill-rule:nonzero;"/>
            <path d="M1319.53,366.537L1268.1,339.62L1209.08,366.537L1191.37,396.217L1219.2,421.512L1273.16,427.519L1326.11,403.802L1319.53,366.537Z" style="fill:rgb(100,88,73);fill-rule:nonzero;"/>
            <path d="M1233.72,332.23L1193.88,311.381L1148.17,332.23L1134.46,355.216L1156.01,374.807L1197.81,379.46L1238.81,361.09L1233.72,332.23Z" style="fill:rgb(124,112,90);fill-rule:nonzero;"/>
            <path d="M1151.78,322.505L1094.2,315.069L1048.16,348.115L1041.83,382.091L1076.69,396.182L1129.4,383.127L1170.85,355.185L1151.78,322.505Z" style="fill:rgb(152,138,116);fill-rule:nonzero;"/>
            <path d="M1317,365.273L1265.57,338.354L1206.55,365.273L1188.84,394.953L1216.67,420.248L1270.63,426.253L1323.58,402.537L1317,365.273Z" style="fill:rgb(152,138,116);fill-rule:nonzero;"/>
            <path d="M1365.5,322.173L1341.72,309.729L1314.43,322.173L1306.25,335.895L1319.11,347.589L1344.06,350.365L1368.54,339.402L1365.5,322.173Z" style="fill:rgb(152,138,116);fill-rule:nonzero;"/>
            <path d="M1212.16,417.415L1190.11,454.384L1218.29,480L1321.84,480L1357.94,463.832L1349.75,417.415L1285.68,383.885L1212.16,417.415Z" style="fill:rgb(124,112,90);fill-rule:nonzero;"/>
            <path d="M1301.97,363.77L1287.64,387.786L1310.15,408.255L1353.82,413.116L1392,396.014L1392,367.479L1391.35,363.77L1349.73,341.989L1301.97,363.77Z" style="fill:rgb(124,112,90);fill-rule:nonzero;"/>
            <path d="M1079.29,411.585L1048.12,395.269L1012.34,411.585L1001.6,429.578L1018.47,444.911L1051.18,448.552L1083.28,434.175L1079.29,411.585Z" style="fill:rgb(152,138,116);fill-rule:nonzero;"/>
            <path d="M1056.18,426.802L1035.81,460.939L1056.78,480L1167.71,480L1190.78,469.665L1183.22,426.802L1124.06,400.902L1056.18,426.802Z" style="fill:rgb(124,112,90);fill-rule:nonzero;"/>
            <path d="M1191.09,444.482L1177.54,468.156L1191.06,480L1267.36,480L1283.96,472.192L1278.24,442.886L1237.27,422.389L1191.09,444.482Z" style="fill:rgb(100,88,73);fill-rule:nonzero;"/>
            <path d="M1324.54,408.975L1314.85,433.269L1331.15,453.524L1362.13,457.838L1392,438.071L1392,437.444L1387.77,407.817L1357.93,386.49L1324.54,408.975Z" style="fill:rgb(100,88,73);fill-rule:nonzero;"/>
            <path d="M1332.63,398.182L1309.64,393.7L1289.92,410.909L1286.5,424.426L1300.17,431.001L1321.73,427.104L1339.47,411.833L1332.63,398.182Z" style="fill:rgb(152,138,116);fill-rule:nonzero;"/>
        </g>
        <g id="wall">
            <path d="M1422,113L1424.33,132L1371,132L1373,113L1422,113Z" style="fill:rgb(236,219,177);fill-rule:nonzero;"/>
            <path d="M1363.83,125L1343.79,480L1440,480L1440,275.999L1430.83,125L1363.83,125Z" style="fill:rgb(206,173,128);fill-rule:nonzero;"/>
            <path d="M1430,115L1365,115L1365.67,107L1429,107L1430,115Z" style="fill:rgb(206,173,128);fill-rule:nonzero;"/>
        </g>
    </g>
</svg>
